X: 15503
T: Glens Of Leitrim, The
R: jig
M: 6/8
K: Edorian
D|E2E BAF|D2D d2d|e2e edB|d3 Bcd|
e2e edB|AFE D2D|F2F BAF|AFE E3:|
B|e2e edB|dBA ABd|e2e edB|d3 Bcd|
e2e edB|AFE D2D|F2F BAF|AFE E3:|

